portfolio/adventure/img/svg/link.svg

<svg xmlns="http://www.w3.org/2000/svg" width="11" height="12"><path d="M11.086 7.407L3.902.295S4.967-.242 5.297.086l5.987 5.926c.33.328-.198 1.395-.198 1.395zM5.303 5.259a.846.846 0 0 1-1.196.008L.915 2.107A.847.847 0 1 1 2.109.905l3.193 3.16c.33.327.331.862.001 1.194zm.804 5.964L.121 5.296c-.331-.328.198-1.395.198-1.395l7.183 7.113s-1.064.536-1.395.209zm-.006-5.174a.846.846 0 0 1 1.196-.008l3.193 3.16a.844.844 0 0 1 .001 1.195.845.845 0 0 1-1.195.008L6.103 7.243a.844.844 0 0 1-.002-1.194z" fill-rule="evenodd"/></svg>

<svg xmlns="http://www.w3.org/2000/svg" xmlns:xlink="http://www.w3.org/1999/xlink" preserveaspectratio="xMidYMid" width="11" height="12" viewbox="0 0 11 12">
  <path d="M11.086,7.407 C11.086,7.407 3.902,0.295 3.902,0.295 C3.902,0.295 4.967,-0.242 5.297,0.086 C5.297,0.086 11.284,6.012 11.284,6.012 C11.614,6.340 11.086,7.407 11.086,7.407 ZM5.303,5.259 C4.973,5.591 4.438,5.595 4.107,5.267 C4.107,5.267 0.915,2.107 0.915,2.107 C0.584,1.779 0.583,1.244 0.913,0.912 C1.243,0.581 1.778,0.577 2.109,0.905 C2.109,0.905 5.302,4.065 5.302,4.065 C5.632,4.392 5.633,4.927 5.303,5.259 ZM6.107,11.223 C6.107,11.223 0.121,5.296 0.121,5.296 C-0.210,4.968 0.319,3.901 0.319,3.901 C0.319,3.901 7.502,11.014 7.502,11.014 C7.502,11.014 6.438,11.550 6.107,11.223 ZM6.101,6.049 C6.431,5.717 6.967,5.713 7.297,6.041 C7.297,6.041 10.490,9.201 10.490,9.201 C10.821,9.529 10.821,10.064 10.491,10.396 C10.162,10.728 9.626,10.732 9.296,10.404 C9.296,10.404 6.103,7.243 6.103,7.243 C5.772,6.916 5.772,6.381 6.101,6.049 Z" id="link" fill-rule="evenodd"/>
</svg>
